astro/public/img/icons/guide-user-data-security.svg

<svg height="70" viewBox="0 0 70 70" width="70" xmlns="http://www.w3.org/2000/svg" xmlns:xlink="http://www.w3.org/1999/xlink"><linearGradient id="a"><stop offset="0" stop-color="#a4aebe"/><stop offset="1" stop-color="#2d53f5"/></linearGradient><linearGradient id="b" x1="12.444444%" x2="87.555556%" xlink:href="#a" y1="0%" y2="100%"/><linearGradient id="c" x1="0%" x2="100%" xlink:href="#a" y1="0%" y2="100%"/><g fill="none" fill-rule="nonzero"><path d="m46.7999254 0c2.8677403 0 5.2000746 2.34941739 5.2000746 5.23816231v49.52367539c0 2.8887449-2.3323343 5.2381623-5.2000746 5.2381623h-37.8180801c-4.95250524 0-8.9818453-4.0590406-8.9818453-9.0478202v-41.90454734c0-4.98896745 4.02934006-9.04763246 8.9818453-9.04763246zm0 2.85700872-36.4009254-.00000872v54.285l36.4009254.0006157c1.3036539 0 2.3636533-1.0677633 2.3636533-2.3809658v-49.52367538c0-1.31320245-1.0599994-2.3809658-2.3636533-2.3809658zm-43.96350414 6.19043595v41.90473513c0 2.9214722 2.01979906 5.3769787 4.72653364 6.0238935v-53.95252217c-2.70673458.64691481-4.72653364 3.10242134-4.72653364 6.02389354zm36.39996274 40.47641853c.7829753 0 1.4181174.6397942 1.4181174 1.4285043 0 .7887102-.6351421 1.4285044-1.4181174 1.4285044h-18.9090401c-.7829753 0-1.4181174-.6397942-1.4181174-1.4285044 0-.7887101.6351421-1.4285043 1.4181174-1.4285043zm3.7817707-5.714393c.7829753 0 1.4181174.6397941 1.4181174 1.4285043s-.6351421 1.4285044-1.4181174 1.4285044h-26.4727679c-.7829754 0-1.4181175-.6397942-1.4181175-1.4285044s.6351421-1.4285043 1.4181175-1.4285043z" fill="url(#b)" transform="translate(9 5)"/><path d="m22.1923981 3.80760194c-2.4553528-2.45535281-5.7200318-3.80760194-9.1923981-3.80760194-3.47256467 0-6.7370453 1.35224913-9.19239806 3.80760194-2.45535281 2.45535276-3.80760194 5.71983339-3.80760194 9.19239806 0 3.4723663 1.35224913 6.7370453 3.80760194 9.1923981 2.45535276 2.4553528 5.71983339 3.8076019 9.19239806 3.8076019 3.4723663 0 6.7370453-1.3522491 9.1923981-3.8076019s3.8076019-5.7200318 3.8076019-9.1923981c0-3.47256467-1.3522491-6.7370453-3.8076019-9.19239806zm-15.6751404 18.65734866c.54371642-3.1305848 3.25654601-5.4397431 6.4827423-5.4397431 3.2263946 0 5.9390259 2.3091583 6.4827423 5.4397431-1.8457794 1.2681427-4.0789642 2.0116119-6.4827423 2.0116119s-4.63696289-.7434692-6.4827423-2.0116119zm2.34922787-11.096695c0-2.27940366 1.85430913-4.13351439 4.13351443-4.13351439s4.1335144 1.85430908 4.1335144 4.13351439c0 2.2792053-1.8543091 4.1335144-4.1335144 4.1335144s-4.13351443-1.8543091-4.13351443-4.1335144zm11.93577573 10.0400086c-.4100189-1.4573823-1.2243042-2.7796784-2.3656921-3.8125611-.7002258-.6337738-1.4972534-1.1338501-2.354187-1.4863433 1.5488281-1.0102692 2.5747681-2.7580567 2.5747681-4.7411042 0-3.11927795-2.5378724-5.65695189-5.6571503-5.65695189-3.11927794 0-5.65695193 2.53767394-5.65695193 5.65695189 0 1.9830475 1.02593999 3.730835 2.57456972 4.7411042-.8567352.3524932-1.65396116.8523712-2.35418702 1.486145-1.14118956 1.0328827-1.95567318 2.3551788-2.36569211 3.8127594-2.25837711-2.0975037-3.67430116-5.0904236-3.67430116-8.4082642 0-6.32821658 5.14834592-11.4765625 11.4765625-11.4765625 6.3282166 0 11.4765625 5.14834592 11.4765625 11.4765625 0 3.318039-1.415924 6.3109589-3.6743012 8.4082642z" fill="url(#c)" stroke="url(#c)" transform="translate(26 15)"/></g></svg>

<svg xmlns="http://www.w3.org/2000/svg" xmlns:xlink="http://www.w3.org/1999/xlink" width="70" height="70"><linearGradient id="a"><stop offset="0" stop-color="#a4aebe"/><stop offset="1" stop-color="#2d53f5"/></linearGradient><linearGradient xlink:href="#a" id="b" x1="12.444%" x2="87.556%" y1="0%" y2="100%"/><linearGradient xlink:href="#a" id="c" x1="0%" x2="100%" y1="0%" y2="100%"/><g fill="none"><path fill="url(#b)" d="M46.8 0C49.668 0 52 2.35 52 5.238v49.524C52 57.65 49.668 60 46.8 60H8.982C4.029 60 0 55.941 0 50.952V9.048C0 4.058 4.03 0 8.982 0zm0 2.857H10.399v54.285h36.4a2.375 2.375 0 0 0 2.365-2.38V5.238A2.375 2.375 0 0 0 46.8 2.857zM2.836 9.047v41.905a6.193 6.193 0 0 0 4.727 6.024V3.024a6.193 6.193 0 0 0-4.727 6.023zm36.4 40.477c.783 0 1.419.64 1.419 1.428 0 .79-.636 1.429-1.419 1.429H20.327c-.783 0-1.418-.64-1.418-1.429 0-.788.635-1.428 1.418-1.428zm3.782-5.715c.783 0 1.418.64 1.418 1.429s-.635 1.428-1.418 1.428H16.545c-.783 0-1.418-.64-1.418-1.428s.635-1.429 1.418-1.429z" transform="translate(9 5)"/><path fill="url(#c)" stroke="url(#c)" d="M22.192 3.808A12.915 12.915 0 0 0 13 0a12.915 12.915 0 0 0-9.192 3.808A12.915 12.915 0 0 0 0 13c0 3.472 1.352 6.737 3.808 9.192A12.915 12.915 0 0 0 13 26c3.472 0 6.737-1.352 9.192-3.808S26 16.472 26 13a12.91 12.91 0 0 0-3.808-9.192zM6.517 22.465A6.564 6.564 0 0 1 13 17.025a6.564 6.564 0 0 1 6.483 5.44c-1.846 1.268-4.08 2.012-6.483 2.012s-4.637-.744-6.483-2.012zm2.35-11.097c0-2.28 1.854-4.133 4.133-4.133s4.134 1.854 4.134 4.133c0 2.28-1.855 4.134-4.134 4.134s-4.134-1.855-4.134-4.134zm11.935 10.04a8.097 8.097 0 0 0-2.365-3.812 8.097 8.097 0 0 0-2.355-1.487 5.657 5.657 0 0 0 2.575-4.74A5.663 5.663 0 0 0 13 5.71a5.663 5.663 0 0 0-5.657 5.657 5.657 5.657 0 0 0 2.575 4.741 8.099 8.099 0 0 0-2.355 1.487 8.099 8.099 0 0 0-2.365 3.812A11.448 11.448 0 0 1 1.523 13C1.523 6.672 6.672 1.523 13 1.523S24.477 6.672 24.477 13c0 3.318-1.416 6.311-3.675 8.408z" transform="translate(26 15)"/></g></svg>
